library/images/brands-image-fortune.svg

<svg viewBox="0 0 219.71 51.33" xmlns="http://www.w3.org/2000/svg"><g fill="#97a0a8"><path d="m162.91.8h8.38q4.05 12.83 8.06 25.59h.27v-25.55h8.55v49.67c-2.95 0-5.89 0-8.82 0-.34 0-.81-.66-.95-1.1-2.11-6.64-4.17-13.29-6.25-19.94a5.78 5.78 0 0 0 -.91-2v23h-8.33z"/><path d="m63.11.74c4.3 0 8.48-.13 12.64 0a11.49 11.49 0 0 1 10.72 10.84c.15 3.55.06 7.12-.11 10.68a12 12 0 0 1 -3.72 8.12 2 2 0 0 0 -.23 1.69c1.59 5.73 3.28 11.44 4.93 17.15.11.38.19.77.31 1.29-2.76 0-5.4 0-8 0-1.11 0-1-.88-1.14-1.48-1.67-6.03-3.26-12.17-4.86-18.27-.34-1.26-.67-2.53-1-3.86 3.61-1.16 5.49-3.46 5.32-7.27-.09-2.13 0-4.27 0-6.41 0-.31 0-.61 0-.92a3.19 3.19 0 0 0 -2.93-3c-1.06-.06-2.13 0-3.39 0v41.13h-8.5z"/><path d="m128.66.81h8.44v1.7q0 17.79 0 35.58a10 10 0 0 0 .17 2.12 3.16 3.16 0 0 0 6.17 0 9.3 9.3 0 0 0 .15-2q0-17.79 0-35.59v-1.76h8.44v1.58c0 12.53.06 25 0 37.57 0 4.86-2.6 8.3-7 10.22a11.14 11.14 0 0 1 -12.5-1.94 11.29 11.29 0 0 1 -3.93-9.06c0-12.21 0-24.43 0-36.65z"/><path d="m207.71 42h12v8.47h-20.46v-49.61h20.46v8.39h-12v11.36h7.6v8.55h-7.62z"/><path d="m8.48 29.18v21.24h-8.48v-49.57h20.46v8.4h-11.87v11.4h7.52v8.53z"/><path d="m118.86 9.31h-7.22v41.08h-8.64v-41h-7.27v-8.55h23.13z"/><path d="m40.39 0a11.71 11.71 0 0 0 -11.78 11.83v13.74 13.73a11.76 11.76 0 1 0 23.51.06q0-13.72 0-27.47a11.74 11.74 0 0 0 -11.73-11.89zm0 42.68c-2 0-3.23-1.39-3.23-3.77q0-6.64 0-13.29t0-13.28c0-2.29 1.21-3.73 3.11-3.77s3.24 1.48 3.25 3.8v26.57c.02 2.28-1.18 3.7-3.1 3.74z"/></g></svg>

<svg xmlns="http://www.w3.org/2000/svg" viewBox="0 0 219.71 51.33"><defs><style>.cls-1{fill:#97a0a8;}</style></defs><title>Asset 2</title><g id="Layer_2" data-name="Layer 2"><g id="Layer_1-2" data-name="Layer 1"><path class="cls-1" d="M162.91.8h8.38q4.05,12.83,8.06,25.59l.27,0V.84h8.55V50.51c-2.95,0-5.89,0-8.82,0-.34,0-.81-.66-.95-1.1-2.11-6.64-4.17-13.29-6.25-19.94a5.78,5.78,0,0,0-.91-2v23h-8.33Z"/><path class="cls-1" d="M63.11.74c4.3,0,8.48-.13,12.64,0A11.49,11.49,0,0,1,86.47,11.58c.15,3.55.06,7.12-.11,10.68a12,12,0,0,1-3.72,8.12,2,2,0,0,0-.23,1.69C84,37.8,85.69,43.51,87.34,49.22c.11.38.19.77.31,1.29-2.76,0-5.4,0-8,0-1.11,0-1-.88-1.14-1.48C76.84,43,75.25,36.86,73.65,30.76c-.34-1.26-.67-2.53-1-3.86,3.61-1.16,5.49-3.46,5.32-7.27-.09-2.13,0-4.27,0-6.41,0-.31,0-.61,0-.92a3.19,3.19,0,0,0-2.93-3c-1.06-.06-2.13,0-3.39,0V50.43h-8.5Z"/><path class="cls-1" d="M128.66.81h8.44v1.7q0,17.79,0,35.58a10,10,0,0,0,.17,2.12,3.16,3.16,0,0,0,6.17,0,9.3,9.3,0,0,0,.15-2q0-17.79,0-35.59V.86h8.44V2.44c0,12.53.06,25,0,37.57,0,4.86-2.6,8.3-7,10.22a11.14,11.14,0,0,1-12.5-1.94,11.29,11.29,0,0,1-3.93-9.06c0-12.21,0-24.43,0-36.65Z"/><path class="cls-1" d="M207.71,42h12v8.47H199.25V.86h20.46V9.25h-12V20.61h7.6v8.55h-7.62Z"/><path class="cls-1" d="M8.48,29.18V50.42H0V.85H20.46v8.4H8.59v11.4h7.52v8.53Z"/><path class="cls-1" d="M118.86,9.31h-7.22V50.39H103v-41H95.73V.84h23.13Z"/><path class="cls-1" d="M40.39,0A11.71,11.71,0,0,0,28.61,11.83c0,4.58,0,9.16,0,13.74V39.3a11.76,11.76,0,1,0,23.51.06q0-13.72,0-27.47A11.74,11.74,0,0,0,40.39,0Zm0,42.68c-2,0-3.23-1.39-3.23-3.77q0-6.64,0-13.29t0-13.28c0-2.29,1.21-3.73,3.11-3.77s3.24,1.48,3.25,3.8V38.94C43.54,41.22,42.34,42.64,40.42,42.68Z"/></g></g></svg>
